X: 13699
T: For Sara
R: waltz
M: 3/4
K: Cmajor
EG|:A,6|G,4 EG|A,6|G,4 EG|
A2G2F2|E2D2C2|1 A,6|G,4 EG:|2 A,6-|A,3A, DE]|
|:F3E FG|E3G, CD|E3G, B,D|D2 CC EG|
A2 G2 F2|E2 D2 C2|1 D6-|D3^C DE:|2 A,6-|A,4||

